X:34
T:5. Allemaingne
C:Tielman Susato
B:Tielman Susato: "Danserye" (1551) no. 34
R:Allemande
Z:Transcribed by Frank Nordberg - http://www.musicaviva.com
F:http://abc.musicaviva.com/tunes/susato-tielman/susato-1551-34/susato-1551-34-4m.abc
M:4/2 
L:1/4
K:C
V:1
CDEFG3c|BGA2G4|CDEFG3c|BGA2G3G|A2B2c3B|A2GFE3C|
E2A2G3C|E2A2G3F|ED/C/ B,/A,/B,C3C|E2A2G3C|E2A2G3F|ED/C/ B,/C/D/B,/C4:|
V:2
C2CDE3E|B,2D2B,4|C3DE3E|B,2D2B,3D|FFG2C2C2-|CA,B,2C3C|
C2C2C3C|C2C2C3C|B,2G,2G,3C,|C2C2C3C|C2C2C3C|B,2G,2G,4:|
V:3
G,2G,G,C3B,/A,/|G,E,^F,2G,4|G,2G,G,C3B,/A,/|G,E,^F,2G,3B,|C2B,2A,2G,2|F,4G,3A,|
G,2F,2G,3A,|G,2F,2G,3A,|G,F,/E,/D,2E,3A,|G,2F,2G,3A,|G,2F,2G,3A,|G,F,/E,/D,2C,4:|
V:4
C,3C,C,3C,|E,2D,2G,,4|C,2C,C,C,3C,|E,2D,2G,,2G,2|F,A,G,2F,2C,2|D,4C,3A,,|
C,2F,,2C,3A,,|C,2F,,2C,2C,F,,|G,,2G,,2C,3A,,|C,2F,,2C,3A,,|C,2F,,2C,2C,F,,|G,,2G,,2C,4:|
W:
W:
W:  From Musica Viva - http://www.musicaviva.com
W:  the Internet center for free sheet music downloads.
